_src/static/img/icon/arrow-next.svg

<svg width="30" height="30" viewBox="0 0 30 30" fill="none" xmlns="http://www.w3.org/2000/svg">
<path d="M15 0C6.71632 0 0 6.71579 0 15C0 23.2842 6.71632 30 15 30C23.2837 30 30 23.2842 30 15C30 6.71579 23.2837 0 15 0ZM13.2668 20.1211C13.1126 20.2747 12.9111 20.3511 12.7095 20.3511C12.5068 20.3511 12.3042 20.2737 12.15 20.1189C11.8426 19.81 11.8432 19.31 12.1521 19.0021L16.1816 14.9895L12.1421 10.8121C11.8389 10.4984 11.8474 9.99895 12.1605 9.69579C12.4742 9.39263 12.9742 9.40053 13.2768 9.71474L18.3984 15.0111L13.2668 20.1211Z" fill="#1B3ACD"/>
</svg>

<svg width="30" height="30" fill="none" xmlns="http://www.w3.org/2000/svg"><path d="M15 0C6.716 0 0 6.716 0 15c0 8.284 6.716 15 15 15 8.284 0 15-6.716 15-15 0-8.284-6.716-15-15-15zm-1.733 20.121a.787.787 0 01-1.117-.002.79.79 0 01.002-1.117l4.03-4.012-4.04-4.178a.79.79 0 011.135-1.097l5.121 5.296-5.131 5.11z" fill="#1B3ACD"/></svg>
